docs/img/svg/vk.svg

<svg width="24" height="24" viewBox="0 0 24 24" fill="none" xmlns="http://www.w3.org/2000/svg">
<rect width="24" height="24" rx="12" fill="#497BAB"/>
<path d="M18.9258 15.225C18.9088 15.1884 18.893 15.1581 18.8783 15.1337C18.6354 14.6956 18.1712 14.1578 17.4861 13.5202L17.4716 13.5056L17.4643 13.4984L17.457 13.4911H17.4497C17.1387 13.1942 16.9418 12.9946 16.8593 12.8924C16.7084 12.6977 16.6746 12.5006 16.7571 12.3009C16.8154 12.1501 17.0342 11.8315 17.4131 11.3447C17.6125 11.0867 17.7703 10.8799 17.8869 10.7242C18.7276 9.6047 19.0921 8.88935 18.9803 8.57782L18.9369 8.50502C18.9077 8.4612 18.8324 8.4211 18.711 8.38454C18.5894 8.34805 18.434 8.34201 18.2444 8.36633L16.1452 8.38085C16.1111 8.36878 16.0626 8.36991 15.9993 8.38454C15.9361 8.39916 15.9045 8.4065 15.9045 8.4065L15.868 8.42478L15.839 8.44675C15.8147 8.46127 15.788 8.48682 15.7588 8.52333C15.7297 8.55972 15.7055 8.60242 15.6861 8.65108C15.4575 9.23999 15.1977 9.78753 14.906 10.2937C14.7262 10.5955 14.5611 10.857 14.4103 11.0785C14.2597 11.2999 14.1333 11.463 14.0313 11.5676C13.9292 11.6722 13.837 11.7561 13.7543 11.8194C13.6716 11.8828 13.6085 11.9095 13.5649 11.8997C13.5211 11.8899 13.4798 11.8802 13.4408 11.8705C13.3728 11.8267 13.3181 11.7671 13.2769 11.6916C13.2355 11.6162 13.2076 11.5213 13.193 11.4069C13.1785 11.2924 13.17 11.194 13.1675 11.1112C13.1652 11.0286 13.1663 10.9116 13.1712 10.7608C13.1763 10.6098 13.1785 10.5077 13.1785 10.4541C13.1785 10.2692 13.1821 10.0684 13.1894 9.85184C13.1967 9.63526 13.2027 9.46365 13.2076 9.33723C13.2126 9.21069 13.2149 9.0768 13.2149 8.93565C13.2149 8.79451 13.2063 8.68381 13.1894 8.60347C13.1726 8.52323 13.1469 8.44534 13.113 8.36983C13.0789 8.2944 13.0291 8.23605 12.9636 8.19463C12.898 8.15325 12.8165 8.12042 12.7194 8.09603C12.4618 8.03765 12.1338 8.00607 11.7353 8.00116C10.8315 7.99144 10.2507 8.0499 9.99317 8.17645C9.89112 8.22991 9.79878 8.30297 9.71621 8.39538C9.62872 8.50249 9.61651 8.56095 9.67968 8.57056C9.97129 8.61431 10.1777 8.71897 10.2992 8.88444L10.343 8.97212C10.3771 9.03538 10.4111 9.14738 10.4451 9.30796C10.4791 9.46854 10.501 9.64617 10.5107 9.84076C10.5349 10.1961 10.5349 10.5003 10.5107 10.7533C10.4863 11.0065 10.4634 11.2036 10.4414 11.3447C10.4195 11.4859 10.3867 11.6002 10.343 11.6878C10.2992 11.7754 10.2701 11.829 10.2555 11.8484C10.2409 11.8678 10.2288 11.8801 10.2191 11.8849C10.156 11.9091 10.0903 11.9215 10.0223 11.9215C9.95418 11.9215 9.87162 11.8874 9.77445 11.8192C9.6773 11.751 9.57648 11.6574 9.47198 11.5381C9.36749 11.4188 9.24964 11.2521 9.11838 11.038C8.98723 10.8239 8.85115 10.5708 8.71023 10.2788L8.59363 10.067C8.52074 9.9308 8.42117 9.73242 8.29481 9.47209C8.16839 9.21166 8.05664 8.95974 7.95949 8.71639C7.92066 8.61418 7.86232 8.53637 7.78458 8.48283L7.7481 8.46086C7.72385 8.44143 7.68491 8.42079 7.6315 8.3988C7.57801 8.37684 7.5222 8.36109 7.46384 8.3514L5.4666 8.36592C5.26251 8.36592 5.12403 8.41223 5.05111 8.50472L5.02193 8.54847C5.00735 8.57284 5 8.61175 5 8.66532C5 8.71887 5.01458 8.78458 5.04376 8.86239C5.33532 9.5487 5.65239 10.2106 5.99496 10.8482C6.33753 11.4857 6.63522 11.9993 6.88784 12.3884C7.14052 12.7778 7.39807 13.1454 7.6605 13.4908C7.92293 13.8364 8.09665 14.0579 8.18164 14.1552C8.26673 14.2526 8.33357 14.3255 8.38216 14.3742L8.56442 14.5494C8.68104 14.6662 8.8523 14.8061 9.07828 14.9691C9.3043 15.1322 9.55453 15.2928 9.82908 15.4511C10.1037 15.6092 10.4232 15.7381 10.7877 15.8379C11.1521 15.9377 11.5068 15.9778 11.8519 15.9585H12.6902C12.8602 15.9438 12.989 15.8902 13.0765 15.7978L13.1055 15.7612C13.125 15.7322 13.1433 15.6871 13.1601 15.6263C13.1772 15.5655 13.1857 15.4985 13.1857 15.4256C13.1807 15.2163 13.1966 15.0278 13.2329 14.8599C13.2693 14.692 13.3107 14.5655 13.357 14.4802C13.4033 14.3951 13.4555 14.3232 13.5136 14.265C13.5719 14.2066 13.6134 14.1712 13.6378 14.1591C13.662 14.1468 13.6813 14.1385 13.6959 14.1335C13.8125 14.0946 13.9498 14.1323 14.1079 14.2468C14.2658 14.3612 14.414 14.5024 14.5525 14.6702C14.691 14.8382 14.8575 15.0267 15.0518 15.2359C15.2463 15.4453 15.4163 15.6009 15.562 15.7032L15.7078 15.7908C15.8051 15.8493 15.9314 15.9028 16.087 15.9515C16.2422 16.0001 16.3782 16.0123 16.495 15.988L18.361 15.9588C18.5456 15.9588 18.6892 15.9282 18.7911 15.8675C18.8931 15.8066 18.9538 15.7396 18.9733 15.6667C18.9928 15.5937 18.9939 15.511 18.977 15.4184C18.9597 15.3261 18.9427 15.2615 18.9258 15.225Z" fill="white"/>
</svg>

<svg width="24" height="24" viewBox="0 0 24 24" fill="none" xmlns="http://www.w3.org/2000/svg"><rect width="24" height="24" rx="12" fill="#497BAB"/><path d="M18.926 15.225a.977.977 0 00-.048-.091c-.243-.438-.707-.976-1.392-1.614l-.014-.014-.008-.008-.007-.007h-.007a8.429 8.429 0 01-.59-.599c-.152-.194-.185-.391-.103-.591.058-.15.277-.47.656-.956.2-.258.357-.465.474-.62.84-1.12 1.205-1.836 1.093-2.147l-.043-.073c-.03-.044-.105-.084-.226-.12a1.146 1.146 0 00-.467-.019l-2.099.015a.272.272 0 00-.146.004l-.095.021-.036.019-.029.022a.325.325 0 00-.08.076.499.499 0 00-.073.128 11.93 11.93 0 01-.78 1.643c-.18.301-.345.563-.496.784-.15.222-.277.385-.379.49a2.652 2.652 0 01-.277.251c-.082.064-.146.09-.19.08a5.403 5.403 0 01-.123-.028.484.484 0 01-.164-.18.802.802 0 01-.084-.284 3.16 3.16 0 01-.022-.646c.005-.151.008-.253.008-.307 0-.185.003-.386.01-.602l.019-.515c.005-.126.007-.26.007-.401 0-.141-.009-.252-.026-.333a1.14 1.14 0 00-.076-.233.393.393 0 00-.15-.175.84.84 0 00-.244-.099 4.843 4.843 0 00-.984-.095c-.903-.01-1.484.049-1.742.175a.982.982 0 00-.277.22c-.087.106-.1.165-.036.175.291.043.498.148.62.313l.043.088c.034.063.068.175.102.336.034.16.056.338.066.533.024.355.024.66 0 .912-.025.254-.048.45-.07.592a1.184 1.184 0 01-.186.503.126.126 0 01-.036.037.546.546 0 01-.197.037c-.068 0-.15-.035-.248-.103a1.75 1.75 0 01-.302-.28 3.761 3.761 0 01-.354-.501 8.727 8.727 0 01-.408-.76l-.116-.211a18.19 18.19 0 01-.3-.595 11.92 11.92 0 01-.335-.756.481.481 0 00-.174-.233l-.037-.022a.773.773 0 00-.284-.11l-1.997.015c-.204 0-.343.046-.416.139l-.03.043A.236.236 0 005 8.665c0 .054.015.12.044.197.291.687.608 1.349.951 1.986.343.638.64 1.151.893 1.54.253.39.51.757.772 1.103.263.345.437.567.522.664.085.098.152.17.2.22l.182.174c.117.117.288.257.514.42.226.163.477.324.751.482.275.158.594.287.959.387.364.1.719.14 1.064.12h.838c.17-.014.299-.068.386-.16l.03-.037a.481.481 0 00.054-.135.74.74 0 00.026-.2 2.41 2.41 0 01.047-.566 1.5 1.5 0 01.124-.38.934.934 0 01.28-.32.47.47 0 01.059-.027c.117-.038.254 0 .412.114.158.114.306.255.444.423.139.168.306.357.5.566.194.21.364.365.51.467l.146.088c.097.058.223.112.379.16.155.05.291.061.408.037l1.866-.03c.185 0 .328-.03.43-.09.102-.061.163-.128.182-.201a.565.565 0 00.004-.249.924.924 0 00-.051-.193z" fill="#fff"/></svg>
